src/work/blix/blixmap/static/images/icon-save-white.svg

<svg height="22" viewBox="0 0 18 22" width="18" xmlns="http://www.w3.org/2000/svg"><path d="m2.0048815 5c-1.10726548 0-2.0048815.89005841-2.0048815 2.00010618v12.99978762c0 1.1046282.8926228 2.0001062 1.99508929 2.0001062h14.00982141c1.1018574 0 1.9950893-.8900584 1.9950893-2.0001062v-12.99978762c0-1.10462814-.8938998-2.00010618-2.0048815-2.00010618h-1.995311c-.5521784 0-.9998075.44386483-.9998075 1.00000003 0 .55228476.4443084.9963436 1.0026758.99174853l2.0084936-.01652883v13.02478027h-14.0111694v-13h2.00104344c.55170847 0 .99895656-.44386482.99895656-1 0-.55228475-.44371665-1-.99980749-1zm6.99122302 12.0000005-4.2908812-4.2942269c-.38948407-.3897877-.38711188-1.0238845.00085374-1.4118502l.08784592-.0878459c.38995558-.3899556 1.02270378-.3894503 1.41578956.0036355l1.79028754 1.7902875.00000007-12.00149813c.00000001-.55145763.44386483-.99850237 1.00000001-.99850237.55228475-0 1.00000004.44748944 1.00000004.99850237l.0000001 12.00149813 1.7902872-1.7902875c.3919633-.3919634 1.0278238-.3916011 1.4157894-.0036355l.0878459.0878459c.3899556.3899556.393061 1.0188495-.0002459 1.4118502z" fill="#fff" fill-rule="evenodd"/></svg>

<?xml version="1.0" encoding="UTF-8" standalone="no"?>
<svg width="18px" height="22px" viewBox="0 0 18 22" version="1.1" xmlns="http://www.w3.org/2000/svg" xmlns:xlink="http://www.w3.org/1999/xlink" xmlns:sketch="http://www.bohemiancoding.com/sketch/ns">
    <!-- Generator: Sketch 3.1.1 (8761) - http://www.bohemiancoding.com/sketch -->
    <title>icon-share</title>
    <desc>Created with Sketch.</desc>
    <defs></defs>
    <g id="List-View" stroke="none" stroke-width="1" fill="none" fill-rule="evenodd" sketch:type="MSPage">
        <g id="icon-share" sketch:type="MSLayerGroup" fill="#FFFFFF">
            <path d="M2.0048815,5 C0.897616023,5 0,5.89005841 0,7.00010618 L0,19.9998938 C0,21.104522 0.892622799,22 1.99508929,22 L16.0049107,22 C17.1067681,22 18,21.1099416 18,19.9998938 L18,7.00010618 C18,5.89547804 17.1061002,5 15.9951185,5 L13.9998075,5 C13.4476291,5 13,5.44386483 13,6.00000003 C13,6.55228479 13.4443084,6.99634363 14.0026758,6.99174856 L16.0111694,6.97521973 L16.0111694,20 L2,20 L2,7 L4.00104344,7 C4.55275191,7 5,6.55613518 5,6 C5,5.44771525 4.55628335,5 4.00019251,5 L2.0048815,5 Z M8.99610452,17.0000005 L4.70522332,12.7057736 C4.31573925,12.3159859 4.31811144,11.6818891 4.70607706,11.2939234 L4.79392298,11.2060775 C5.18387856,10.8161219 5.81662676,10.8166272 6.20971254,11.209713 L8.00000008,13.0000005 L8.00000015,0.998502365 C8.00000016,0.447044736 8.44386498,3.55271368e-15 9.00000016,0 C9.55228491,-3.55271368e-15 10.0000002,0.447489442 10.0000002,0.998502365 L10.0000003,13.0000005 L11.7902875,11.209713 C12.1822508,10.8177496 12.8181113,10.8181119 13.2060769,11.2060775 L13.2939228,11.2939234 C13.6838784,11.683879 13.6869838,12.3127729 13.2936769,12.7057736 L8.99610452,17.0000005 Z" sketch:type="MSShapeGroup"></path>
        </g>
    </g>
</svg>
